src/assets/icons/svg/chat.svg

<svg t="1570610612302" class="icon" viewBox="0 0 1024 1024" version="1.1" xmlns="http://www.w3.org/2000/svg" p-id="21821" width="64" height="64"><path d="M286.077016 289.647843c-26.568099 0-48.182372 21.600971-48.182372 48.151673 0 26.568099 21.614274 48.183396 48.182372 48.183396 26.569122 0 48.184419-21.615297 48.184419-48.183396C334.262458 311.24779 312.646138 289.647843 286.077016 289.647843zM419.834392 289.647843c-26.568099 0-48.183396 21.600971-48.183396 48.151673 0 26.568099 21.615297 48.183396 48.183396 48.183396 26.550703 0 48.151673-21.615297 48.151673-48.183396C467.986065 311.24779 446.385095 289.647843 419.834392 289.647843zM553.591769 294.00815c-26.569122 0-48.184419 21.61632-48.184419 48.184419 0 26.550703 21.615297 48.15065 48.184419 48.15065 26.549679 0 48.15065-21.599947 48.15065-48.15065C601.742419 315.623447 580.142471 294.00815 553.591769 294.00815zM869.579513 381.572462 773.79703 381.572462 773.79703 177.442318c0-57.651025-46.90324-104.554264-104.556311-104.554264L170.396343 72.888054c-57.633628 0-104.522542 46.902216-104.522542 104.554264l0 336.572572c0 57.043181 45.9004 103.563704 102.696963 104.539938l-1.116427 150.198837L384.239709 619.011222l0 118.800733c0 48.761564 39.670511 88.432075 88.431052 88.432075l224.653573 0 179.914626 124.307144-0.884137-124.563994c45.605687-3.473101 81.653695-41.693588 81.653695-88.175225L958.008518 470.001467C958.008518 421.240927 918.340053 381.572462 869.579513 381.572462zM368.913653 567.336306l-149.515269 103.256712 0.766456-103.256712-49.767474 0c-29.384237 0-53.290717-23.919782-53.290717-53.321416L117.10665 177.442318c0-29.402657 23.905456-53.323463 53.290717-53.323463l498.844376 0c29.401634 0 53.322439 23.920806 53.322439 53.323463l0 336.572572c0 29.401634-23.920806 53.321416-53.322439 53.321416L368.913653 567.336306zM906.777717 737.811955c0 20.511149-16.687054 37.198204-37.198204 37.198204l-44.843324 0 0.565888 77.382415-112.014166-77.382415L472.670761 775.010159c-20.511149 0-37.199227-16.687054-37.199227-37.198204L435.471534 618.571201l233.768161 0c57.653071 0 104.556311-46.904263 104.556311-104.556311l0-81.210603 95.783507 0c20.511149 0 37.198204 16.687054 37.198204 37.19718L906.777717 737.811955z" p-id="21822"></path></svg>

<svg class="icon" viewBox="0 0 1024 1024" xmlns="http://www.w3.org/2000/svg" width="64" height="64"><path d="M286.077 289.648c-26.568 0-48.182 21.6-48.182 48.152 0 26.568 21.614 48.183 48.182 48.183 26.57 0 48.184-21.615 48.184-48.183.001-26.552-21.615-48.152-48.184-48.152zm133.757 0c-26.568 0-48.183 21.6-48.183 48.152 0 26.568 21.615 48.183 48.183 48.183 26.551 0 48.152-21.615 48.152-48.183 0-26.552-21.6-48.152-48.152-48.152zm133.758 4.36c-26.57 0-48.185 21.616-48.185 48.185 0 26.55 21.616 48.15 48.185 48.15 26.55 0 48.15-21.6 48.15-48.15 0-26.57-21.6-48.185-48.15-48.185zm315.988 87.564h-95.783v-204.13c0-57.65-46.903-104.554-104.556-104.554H170.396c-57.633 0-104.522 46.902-104.522 104.554v336.573c0 57.043 45.9 103.564 102.697 104.54l-1.117 150.199L384.24 619.01v118.801c0 48.762 39.67 88.432 88.43 88.432h224.654L877.24 950.551l-.884-124.564c45.606-3.473 81.654-41.693 81.654-88.175v-267.81c0-48.761-39.669-88.43-88.43-88.43zM368.914 567.336L219.398 670.593l.767-103.257h-49.768c-29.384 0-53.29-23.92-53.29-53.321V177.442c0-29.402 23.905-53.323 53.29-53.323h498.845c29.401 0 53.322 23.92 53.322 53.323v336.573c0 29.402-23.92 53.321-53.322 53.321H368.914zm537.864 170.476c0 20.511-16.687 37.198-37.198 37.198h-44.844l.566 77.383-112.014-77.383H472.67c-20.511 0-37.2-16.687-37.2-37.198v-119.24H669.24c57.653 0 104.556-46.905 104.556-104.557v-81.21h95.784c20.51 0 37.198 16.686 37.198 37.196v267.811z"/></svg>
